rospo-icon-theme-classic-common/symbolic/status/dialog-warning-symbolic.svg

<svg height="16" width="16" xmlns="http://www.w3.org/2000/svg"><path d="m8 1c-.3549 0-.674.172-.8633.4961l-6.99998 11.9999c-.38753.671.09328 1.504.86328 1.504h14c .76 0 1.248-.845.867-1.504l-7.0037-11.9999c-.1893-.3241-.5084-.4961-.8633-.4961zm-1 3h2v6h-2zm0 7h2v2h-2z" fill="#5294e2"/></svg>

<svg xmlns="http://www.w3.org/2000/svg" width="16" height="16" version="1.1">
 <path style="fill:#5294e2" class="warning" d="M 8,1 C 7.6451,1 7.326,1.172 7.1367,1.4961 L 0.13672,13.496 C -0.25081,14.167 0.23,15 1,15 H 15 C 15.76,15 16.248,14.155 15.867,13.496 L 8.8633,1.4961 C 8.674,1.172 8.3549,1 8,1 Z M 7,4 H 9 V 10 H 7 Z M 7,11 H 9 V 13 H 7 Z"/>
</svg>
